X:0303
T:Aldridges Dance.
M:6/8
L:1/8
Q:3/8=112
I: ::
Z:Jack Campin * www.campin.me.uk * 2009
K:G
d/c/|B2G GAG|B2G  G2G      |A2B c2B|A2G  FED|
     G2A B2c|d2d  d2B      |A2B c2B|A2B Hc2
d/c/|B2G GAG|B2G  GAG      |A2B c2B|A2G  FED|
     G2A B2c|d2d Hd2 (e/f/)|g2d dec|B2G  G2:|
<end>
<start>
